svg/butterfly.svg

<svg xmlns="http://www.w3.org/2000/svg" viewBox="0 0 24 24"><path d="M13 21h-2V6L9.03 3.97 10 3l2 2 2-2 1 1-2 2zM7 6a5.002 5.002 0 0 0-3 9v2c0 2.21 1.79 4 4 4 .72 0 1.39-.19 1.97-.5l.03-.04V7c-.84-.63-1.87-1-3-1m-.5 6.5L5 11l1.5-1.5L8 11zM22 11c0-2.76-2.24-5-5-5-1.12 0-2.15.37-3 1v13.46c.59.35 1.27.54 2 .54 2.21 0 4-1.79 4-4v-2c1.21-.91 2-2.36 2-4m-4.5 1.5L16 11l1.5-1.5L19 11z"/></svg>

<?xml version="1.0" encoding="UTF-8"?><!DOCTYPE svg PUBLIC "-//W3C//DTD SVG 1.1//EN" "http://www.w3.org/Graphics/SVG/1.1/DTD/svg11.dtd"><svg xmlns="http://www.w3.org/2000/svg" xmlns:xlink="http://www.w3.org/1999/xlink" version="1.1" id="mdi-butterfly" width="24" height="24" viewBox="0 0 24 24"><path d="M13 21H11V6L9.03 3.97L10 3L12 5L14 3L15 4L13 6V21M7 6C4.24 6 2 8.24 2 11C2 12.64 2.79 14.09 4 15H4V17C4 19.21 5.79 21 8 21C8.72 21 9.39 20.81 9.97 20.5L10 20.46V7C9.16 6.37 8.13 6 7 6M6.5 12.5L5 11L6.5 9.5L8 11L6.5 12.5M22 11C22 8.24 19.76 6 17 6C15.88 6 14.85 6.37 14 7L14 7V20.46C14.59 20.81 15.27 21 16 21C18.21 21 20 19.21 20 17V15H20C21.21 14.09 22 12.64 22 11M17.5 12.5L16 11L17.5 9.5L19 11L17.5 12.5Z" /></svg>
